X: 41
T: Once I Saw a Little Bird
O: Old Scotch
%R: air, march
B: "The Everyday Song Book", 1927
F: http://www.library.pitt.edu/happybirthday/pdf/The_Everyday_Song_Book.pdf
Z: 2017 John Chambers <jc:trillian.mit.edu>
M: 4/4
L: 1/8
K: D
% - - - - - - - - - - - - - - -
D E | F F F F F2 (ED) | Fz Fz Fz d B | A2 F F
w: 1.~Once I saw a       lit-tle bird come* hop, hop, hop!  So I cried, "Lit-tle
w: 2.~Back then came the lit-tle bird with* hop, hop, hop!  So I cried, "Lit-tle
%
F2 E D | Fz Ez Ez D E | F- F F F G F E D |
w: bird, will you stop, stop, stop?"  And was go-ing to the win-dow to say:
w: bird, you must stop, stop, stop!"  Then I went* to the salt-box, so my
%
F2 A A d2 d e | f e d c (ed) c B | Az Fz Fz |]
w: "How do you do?"     When he shook his lit-tle tail* and a-way he flew!
w: plan would not fail, And I put a lit-tle pinch* on his tail, tail, tail!
% - - - - - - - - - - - - - - -

%%sep 1 1 500
%%sep 1 1 500

